svgs/light/briefcase.svg

<svg xmlns="http://www.w3.org/2000/svg" viewBox="0 0 512 512"><!--! Font Awesome Pro 6.6.0 by @fontawesome - https://fontawesome.com License - https://fontawesome.com/license (Commercial License) Copyright 2024 Fonticons, Inc. --><path d="M160 48l0 48 192 0 0-48c0-8.8-7.2-16-16-16L176 32c-8.8 0-16 7.2-16 16zM128 96l0-48c0-26.5 21.5-48 48-48L336 0c26.5 0 48 21.5 48 48l0 48 64 0c35.3 0 64 28.7 64 64l0 256c0 35.3-28.7 64-64 64L64 480c-35.3 0-64-28.7-64-64L0 160c0-35.3 28.7-64 64-64l64 0zm240 32l-224 0-80 0c-17.7 0-32 14.3-32 32l0 96 144 0 32 0 96 0 32 0 144 0 0-96c0-17.7-14.3-32-32-32l-80 0zM480 288l-144 0 0 48c0 17.7-14.3 32-32 32l-96 0c-17.7 0-32-14.3-32-32l0-48L32 288l0 128c0 17.7 14.3 32 32 32l384 0c17.7 0 32-14.3 32-32l0-128zm-272 0l0 48 96 0 0-48-96 0z"/></svg>

<svg xmlns="http://www.w3.org/2000/svg" viewBox="0 0 512 512"><!--! Font Awesome Pro 6.4.2 by @fontawesome - https://fontawesome.com License - https://fontawesome.com/license (Commercial License) Copyright 2023 Fonticons, Inc. --><path d="M160 48V96H352V48c0-8.8-7.2-16-16-16H176c-8.8 0-16 7.2-16 16zM128 96V48c0-26.5 21.5-48 48-48H336c26.5 0 48 21.5 48 48V96h64c35.3 0 64 28.7 64 64V416c0 35.3-28.7 64-64 64H64c-35.3 0-64-28.7-64-64V160c0-35.3 28.7-64 64-64h64zm240 32H144 64c-17.7 0-32 14.3-32 32v96H176h32 96 32H480V160c0-17.7-14.3-32-32-32H368zM480 288H336v48c0 17.7-14.3 32-32 32H208c-17.7 0-32-14.3-32-32V288H32V416c0 17.7 14.3 32 32 32H448c17.7 0 32-14.3 32-32V288zm-272 0v48h96V288H208z"/></svg>
